X: 7433
T:Menuett fr Oravais (Orqvais), Finland
R:Minuet
O:Finland
M:3/4
K:Dm
A>A Ac BG|AF E/D/C/E/ D2|\
d>c d>e fd|e>d ^c>d A2|\
A>A Ac BG|AF E/D/C/E/ D>E|
F/E/F/G/ AA FF|EC D4::\
C>F F>E D2|C>c cB A2|
A>B c>B AA|GG F4|\
A>A Ac BG|AF E/D/C/E/ D>E|F/E/F/G/ AA FF|EC D4:|
